!!!COM: Bach, Johann Sebastian
!!!OTL: 124. Auf, auf, mein Herz, und du mein ganzer Sinn
!!!ONM: No. 124
!!!OCL: Erk
!!!SCA: BWV 268
!!!YOE: Riemenschneider, Albert
!!!OPR: 371 Harmonized Chorales and 69 Chorale Melodies with Figured Bass
!!!OPT: Bach Chorale Harmonizations
**harm	**root	**kern	**kern	**kern	**kern
!	!	!bass	!tenor	!alto	!sprno
*Iorgan	*Iorgan	*Iorgan	*Iorgan	*Iorgan	*Iorgan
*k[f#c#g#d#a#e#]	*k[f#c#g#d#a#e#]	*k[f#c#g#d#a#e#]	*k[f#c#g#d#a#e#]	*k[f#c#g#d#a#e#]	*k[f#c#g#d#a#e#]
*F#:	*F#:	*F#:	*F#:	*F#:	*F#:
*met(c)	*met(c)	*met(c)	*met(c)	*met(c)	*met(c)
*M4/4	*M4/4	*M4/4	*M4/4	*M4/4	*M4/4
*MM60	*MM60	*MM60	*MM60	*MM60	*MM60
I	4GG	8F#	4c#	4f#	4a#
.	.	8E#	.	.	.
=1	=1	=1	=1	=1	=1
I	8GG	4F#	8c#	8f#	4a#
vib	8EE	.	8d#	8d#	.
Vb/vi	4BB	4C##	4e#	8a#	4a#
.	.	.	.	8g#	.
vi;	4EE;	4D#;	4d#;	4f#;	4a#;
iib	4AA	4BB	4d#	8g#	4dd#
.	.	.	.	8f#	.
=2	=2	=2	=2	=2	=2
V7d	4.DD	4.BB	8G#	8e#	4cc#
.	.	.	8F#	8d#	.
.	.	.	8G#	8e#	4cc#
viib/ii	8GG#	8AA#	8A#	8f##	.
ii	4AA	8GG#	8B	4g#	4b
.	.	8FF##	8A#	.	.
ii	4AA	4GG#	4G#	8d#	4b
.	.	.	.	8e#	.
=3	=3	=3	=3	=3	=3
I;	4GG;	4FF#;	4c#;	4f#;	4a#;
I	4GG	4F#	4A#	4c#	4f#
Vb	4DD	8E#	4G#	8c#	4g#
.	.	8D#	.	8d#	.
V	4DD	4C#	8c#	8e#	4g#
.	.	.	8B	8d#	.
=4	=4	=4	=4	=4	=4
I	4GG	8F#	8A#	4c#	4a#
.	.	8E#	8G#	.	.
IVb	4CC	4D#	4F#	8f#	4b
.	.	.	.	8d#	.
V	8DD	4C#	8G#	8e#	8cc#
V7	8DD	.	8E#	8g#	8b
vi	8EE	8D#	8F#	[4f#	4a#
Ic	8GG	8C#	8A#	.	.
=5	=5	=5	=5	=5	=5
ii7b	8AA	8BB	8d#	8f#]	4g#
ii	8AA	8GG#	8B	16e#	.
.	.	.	.	16d#	.
V	4DD	4C#	8G#	4e#	4g#
.	.	.	16c#	.	.
.	.	.	16B	.	.
I;	4GG;	4FF#;	4A#;	4c#;	4f#;
V7d/V	4AA	4F#	4B#	4d#	4g#
=6	=6	=6	=6	=6	=6
!!linebreak: 2
Vb	8DD	8E#	8c#	8e#	4g#
V7c/V	8AA	8D#	8B#	8f#	.
V	8DD	8C#	8c#	8e#	4g#
Vb/V	8AA	8BB#	8d#	8d#	.
V;	4DD;	4C#;	4c#;	4e#;	4g#;
Vb/vi	4BB	4C##	4A#	[4e#	8a#
.	.	.	.	.	8g#
=7	=7	=7	=7	=7	=7
vi	4EE	8D#	4A#	4e#]	4f#
.	.	8E#	.	.	.
vib	4EE	8F#	4A#	[4d#	4f#
.	.	8D#	.	.	.
Vb	8DD	8BB#	8G#	8d#]	4g#
viio/vi	8DD#	8C##	8E#	8e#	.
vi	8EE	8D#	4F#	8A#	4f#
IV	8CC	8BB	.	[8d#	.
=8	=8	=8	=8	=8	=8
viio7b	4FF#	4GG#	4B	8d#]	2e#
.	.	.	.	8c##	.
V7b/V/vi	4FF#	4GG##	4B#	8d#	.
.	.	.	.	8B#	.
V/vi;	4BB;	4AA#;	4A#;	4c##;	4e#;
Vb/vi	4BB	4C##	8A#	4A#	4e#
.	.	.	8G#	.	.
=9	=9	=9	=9	=9	=9
vi	8EE	8D#	8F#	4A#	4f#
V7c/IV	8GG	8C#	8E#	.	.
IV	8CC	8BB	8F#	8d#	4f#
Ib	8GG	8AA#	8A#	8c#	.
ii	4AA	8GG#	[4B	8d#	4g#
.	.	8FF#	.	16e#	.
.	.	.	.	16f#	.
viio	8FF#	8EE#	8B]	8g#	4g#
V	8DD	8CC#	16c#	8e#	.
.	.	.	16B	.	.
=10	=10	=10	=10	=10	=10
I	4GG	8FF#	[4A#	8c#	4a#
.	.	8F#	.	16d#	.
.	.	.	.	16e#	.
IV7b	8CC	8D#	8A#]	8f#	4b
viiob	8FF#	8G#	16G#	16e#	.
.	.	.	16F#	16d#	.
Vb	8DD	8E#	8G#	8e#	8cc#
V7	8DD	8C#	8e#	4g#	8b
I	8GG	8F#	8c#	.	4a#
vi	8EE	8D#	8d#	8f#	.
=11	=11	=11	=11	=11	=11
ii7b	4AA	8BB	8d#	4f#	2g#
.	.	8GG#	8B	.	.
V	4DD	4C#	8G#	4e#	.
.	.	.	16c#	.	.
.	.	.	16B	.	.
I;	4GG;	4FF#;	4A#;	4c#;	4f#;
==	==	==	==	==	==
*-	*-	*-	*-	*-	*-
!!!CDT: 1685/3//-1750/7/28
!!!OCY: Deutschland
!!!AGN: chorale
!!!AST: Baroque
!!!AIN: vox
!!!YOY: 1941
!!!PPP: New York; London
!!!PPR: G. Schirmer
!!!ENC: David Huron
!!!EED: David Huron
!!!YEN: United States of America
!!!YER: 1992
!!!YEC: Copyright 1992 David Huron
!!!YEM: Rights to all derivative electronic formats reserved.
!!!YER: March 20, 1996
!!!AMT: simple quadruple
!!!EEV: 1.1
!!chor2scor: -l 2 -s 0.6 -o %b.pmx
